app/client/src/assets/icons/blueprintjs/20px/align-center.svg

<svg xmlns="http://www.w3.org/2000/svg" xml:space="preserve" viewBox="0 0 20 20"><path fill-rule="evenodd" d="M5 5c-.55 0-1 .45-1 1s.45 1 1 1h10c.55 0 1-.45 1-1s-.45-1-1-1H5zM1 3h18c.55 0 1-.45 1-1s-.45-1-1-1H1c-.55 0-1 .45-1 1s.45 1 1 1zm12 12c.55 0 1-.45 1-1s-.45-1-1-1H7c-.55 0-1 .45-1 1s.45 1 1 1h6zm4 2H3c-.55 0-1 .45-1 1s.45 1 1 1h14c.55 0 1-.45 1-1s-.45-1-1-1zm2-8H1c-.55 0-1 .45-1 1s.45 1 1 1h18c.55 0 1-.45 1-1s-.45-1-1-1z" clip-rule="evenodd"/></svg>

<?xml version="1.0" encoding="utf-8"?>
<!-- Generator: Adobe Illustrator 17.1.0, SVG Export Plug-In . SVG Version: 6.00 Build 0)  -->
<!DOCTYPE svg PUBLIC "-//W3C//DTD SVG 1.1//EN" "http://www.w3.org/Graphics/SVG/1.1/DTD/svg11.dtd">
<svg version="1.1" id="Layer_1" xmlns="http://www.w3.org/2000/svg" xmlns:xlink="http://www.w3.org/1999/xlink" x="0px" y="0px"
	 viewBox="0 0 20 20" enable-background="new 0 0 20 20" xml:space="preserve">
<g id="Rounded_Rectangle_7_2_">
	<g>
		<path fill-rule="evenodd" clip-rule="evenodd" d="M5,5C4.45,5,4,5.45,4,6c0,0.55,0.45,1,1,1h10c0.55,0,1-0.45,1-1
			c0-0.55-0.45-1-1-1H5z M1,3h18c0.55,0,1-0.45,1-1c0-0.55-0.45-1-1-1H1C0.45,1,0,1.45,0,2C0,2.55,0.45,3,1,3z M13,15
			c0.55,0,1-0.45,1-1c0-0.55-0.45-1-1-1H7c-0.55,0-1,0.45-1,1c0,0.55,0.45,1,1,1H13z M17,17H3c-0.55,0-1,0.45-1,1c0,0.55,0.45,1,1,1
			h14c0.55,0,1-0.45,1-1C18,17.45,17.55,17,17,17z M19,9H1c-0.55,0-1,0.45-1,1c0,0.55,0.45,1,1,1h18c0.55,0,1-0.45,1-1
			C20,9.45,19.55,9,19,9z"/>
	</g>
</g>
</svg>
